**kern	**kern
*part1	*part1
*staff2	*staff1
*I"Piano	*
*clefF4	*clefG2
*k[b-]	*k[b-]
=1	=1
2F	4c 4e
.	4B- 4d
=	=
4r	4A 4c
4BBBn 4BBn	4A-X 4d 4f
=	=
4CC 4C	4An 4c 4f
4CC;	4B-; 4c 4e
=	=
4FFF 4FF	4A 4c 4f
8FFL	4b- 4dd 4ff
8FJ	.
=	=
8FFL	4a 4cc 4ff
8FJ	.
8FFL	4g 4b- 4ff
8FJ	.
=	=
4FF	4f 4a 4ff
4r	4r
=	=
4FF 4C 4F	4a 4cc 4ff 4aa
4r	4r
=	=
4.FFF 4.FF	4.F 4.A 4.c 4.f
8r	8r
==	==
*-	*-
!!!system-decoration: {(s1,s2)}
